X: 1
T: Over the Hills and Far Away
C: R-28
M: C|
Z: Transcribed to abc by Mary Lou Knack
R: reel
K: Em
A2| "D"defe defe| "G"d2B2 B2AB| "D"defe "Bm"defe| "Em"g2e2 "A7"e2A2|
    "D"defe defe| "G"d2B2 g4| B2AG A2B2| "Em"g2e2 e2 :|
|:\
fg| "D"abag fgfe| "Bm"d2B2 B2fg| abag fgfe| "Em"g2e2 "A7"e2fg|
    "D"abag fgfe| "Bm"d2B2 "Em"g4| "G"B2AG A2B2| "Em"g2e2 e2 :|
%%text 9/1/98
